X:1
T:Title
%%score { ( 1 3 ) | 2 }
L:1/8
M:4/4
K:Bb
V:1 treble nm="Grand Piano"
V:3 treble 
V:2 bass 
V:1
 z4 z2[Q:1/4=100] [B,D][CE] | [DF]2 [DF]2 [DF][_D=E][=DF][DB] | [EA]2 (3[EA][EA][EA] [EA]2 AB | %3
 c2 c2 c=Bce | d2 (3[FBd][FBd][FBd] [FBd]2 de | f2 d2 cBcd | %6
 [Ge]2 (3[GBe][GBe][GBe] [GBe]2 [EG][EG] | [=Ec]2 [EG]2 [Fd]2 [_Ec]2 |[M:3/4] [DB]6 | %9
[M:1/4] [DB][Ec] |[M:4/4] [Fd]2 [Fd]2 [Ge]2 [Fd]2 | [EG]6 z2 | [=Ec]2 [Ec]2 [Ed]2 [Ec]2 | F6 z2 | %14
 d>d dd cBcd | [Ge]>[Ge] [Ge][Ge] [Gd][Gc][Gd][Ge] | [Ff]2 B2 d2 c2 |[M:3/4] [DB]6 |] %18
V:2
 z4 z2 [B,,F,][B,,F,] | [B,,B,]2 [B,,B,]2 [B,,B,][B,,B,][B,,B,][B,,F,] | %2
 [C,F,]2 (3[C,F,C][C,F,C][C,F,C] [C,F,C]2 [F,CE][F,B,D] | %3
 [F,A,F]2 [F,A,F]2 [F,A,F][F,_A,F][F,=A,F][F,CF] | %4
 [B,F]2[K:bass] (3[B,,B,][B,,B,][B,,B,] [B,,B,]2[K:treble] [B,F][B,CF] | %5
 [B,DF]2 [B,F]2 [B,E][B,D][B,_A][B,A] | [E,B,]2 (3[E,B,][E,B,][E,B,] [E,B,]2 [E,B,][E,G,] | %7
 [C,G,]2 [C,B,]2 [F,B,]2 [F,A,]2 |[M:3/4] [B,,B,]6 |[M:1/4] [B,,B,][B,,B,] | %10
[M:4/4] [B,,B,]2 [B,,B,]2 [B,,B,]2 [B,,B,]2 | [E,B,]E,E,E, E,F,E,D, | %12
 [C,G,]2 [C,G,]2 [C,B,]2 [C,B,]2 | [F,A,]F,F,G, F,E,D,[K:treble][F,A,F] | %14
 [B,F]>[B,F] [B,F][B,F] [B,E][B,D][B,_A][B,A] | %15
 [E,B,]>[E,B,] [E,B,][E,B,] [E,B,][E,B,][E,B,][E,B,] | [D,B,]2 [G,C=E]2 [F,B,F]2 [F,_E]2 | %17
[M:3/4] [B,,F,]6 |] %18
V:3
 x8 | x8 | x8 | x8 | x8 | x8 | x8 | x8 |[M:3/4] x6 |[M:1/4] x2 |[M:4/4] x8 | %11
 z B,B,B, B,2 [CFA][B,FB] | x8 | z A,A,B, A,2 [B,FB]c | x8 | x8 | x8 |[M:3/4] x6 |] %18

